home-silo.svg

<svg fill="currentColor" viewBox="0 0 24 24"><path d="M24 7.8C23.6 4.5 20.9 2 17.5 2c-1.7 0-3.4.7-4.6 1.9-.7.7-1.2 1.4-1.5 2.3L17 9.9v.1h3v2h-3v2h3v2h-3v2h3v2h-3v2h7zM13.3 7c.6-1.8 2.3-3 4.2-3s3.6 1.2 4.2 3zM0 11v11h5v-7h5v7h5V11L7.5 6z"/></svg>

<svg  viewBox="0 0 24 24" fill="currentColor"><path  d="M24 7.8C23.6 4.5 20.9 2 17.5 2C15.8 2 14.1 2.7 12.9 3.9C12.2 4.6 11.7 5.3 11.4 6.2L17 9.9V10H20V12H17V14H20V16H17V18H20V20H17V22H24V7.8M13.3 7C13.9 5.2 15.6 4 17.5 4S21.1 5.2 21.7 7H13.3M0 11V22H5V15H10V22H15V11L7.5 6L0 11Z"/></svg>
